X:1
T:Love
T:Edward Elgar
T:Love
T:Opus 18 No 2
T:(c) Wim Looyestijn - 2018. May be freely copied for non-commercial use.
T:(c) Wim Looyestijn - 2018. May be freely copied for non-commercial use.
T:(c) Wim Looyestijn - 2018. May be freely copied for non-commercial use.
T:(c) Wim Looyestijn - 2018. May be freely copied for non-commercial use.
T:(c) Wim Looyestijn - 2018. May be freely copied for non-commercial use.
T:(c) Wim Looyestijn - 2018. May be freely copied for non-commercial use.
C:Edward Elgar
Z:Arthur Maquarie
Z:(c) Wim Looyestijn - 2018. May be freely copied for non-commercial use.
%%score 1 2 3 4
L:1/8
Q:1/4=120
M:2/4
K:F
V:1 treble nm="MusicXML Part"
V:2 treble nm="MusicXML Part"
V:3 treble-8 nm="MusicXML Part"
V:4 bass nm="MusicXML Part"
V:1
"^Allegretto"!mf! F>G!<(! Ac!<)! |"^ten." e2 d2 |!>(! G4!>)! |!mf! cA A>F |"^dim." A2 ^G2 | A2 F2 | %6
w: Like the ro- sy|north- ern|glow|flush- ing on a|moon- *|* les|
!p! E4- | E4 | D>!<(!E!<)! FA | c3!>(! B | E4!>)! |!pp! A2"^poco rit."!<(! G2!<)! | B4 | %13
w: night,|_|where the world is|le- vel|snow,|so thy|light.|
!>(! A2 z2!>)! ||!p!"^a tempo""^Poco più lento" F>G!<(! A!<)!c |"^espress." e2!>(! d2!>)! | G4 | %17
w: _|In my time of|out- er|gloom|
 !tenuto!cA A>F | A2 ^G2 | A2 F2 | E4- | E4 |"^poco largamente" !tenuto!D>E FA | c3 B | E4 | %25
w: thou didst come, a|ten- *|* der|lure,|_|thou, when life was|but a|tomb,|
!pp! A2"^rit." G2 | B4 | B2 A2 | c3 z | d2 E2 | !fermata!F4 ||!f!"^Tempo primo" E!<(!A ^c!<)!=B | %32
w: beam- edst|pure,|beam- edst|pure,|beam- edst|pure.|Thus I looked to|
 e3!>(! ^c!>)! |!>(! =B2!>)! !>!B2- | B"^cresc. e largamente"^c d^A | =B2 ^c2 | d2 ^f2- | %37
w: heav'n a-|gain, yearn-|* ing up with|ea- ger,|ea- *|
!ff! f2 e2 |"^a tempo" ^c3!mf! E | EA ^c=B | e3 ^c |"^dim." =B4 |!pp! ^c2 AA | A2 ^G2 | %44
w: * ger|eyes, as|sun- flow'rs af- ter|drear- y|rain|drink _ the|skies, _|
 ^F3"^rit." ^C | E4 | F!<(!G Ac!<)! |!mf!"^Come prima, ma più lento" e3 d | G4 | %49
w: drink the|skies.|Oh glow on and|bright- er|glow,|
 !tenuto!c!tenuto!A !tenuto!AF | A2"^dim." ^G2 | A2 F2 | E4- | E4 |!p! D!<(!E F!<)!A | %55
w: let me ev- er|gaze _|_ on|thee,|_|lest I lose warm|
 c3!>)!!>(! B |"^dim. molto" E4 |!pp! A2 G2 | B4 | B2 A2 |!<(! c3!<)! c |!>(! c2!>)! BG | %62
w: hope and|so|cease to|be,|lest I|lose warm|hope _ and|
!pp! G3 E | F4 |] %64
w: cease to|be.|
V:2
!mf! F>F!<(! F!<)!G | FG AF |!>(! G4!>)! |!mf! FF F>F | E2 D2 | C2 =B,2 |!p! C2 =B,2 | D2 ^C2 | %8
w: Like the ro- sy|north- * ern _|glow|flush- ing on a|mon- *|* less,|moon- les|night, _|
 D>!<(!D!<)! DE | DE F!>(!D | E4!>)! |!pp! CD!<(! EG!<)! | G2!>(! F2!>)! | C2 z2 || %14
w: where the world is|le- * * vel|snow,|so _ thy _|light. _|_|
!p! F>F!<(! FG!<)! |"^espress." FG A!>(!F!>)! | G4 | !tenuto!FF F>F | E2 D2 | C2 =B,2 | C2 =B,2 | %21
w: In my time of|out- * * er|gloom|thou didst come, a|ten- *|* der,|ten- der|
 D2 ^C2 | !tenuto!D>D DE | DE FD | E4 |!pp! CD EG | G2 F2 | DE FA | A>A AG | FE DC | !fermata!C4 || %31
w: lure, _|thou, when life was|but _ _ a|tomb,|beam- * edst _|pure, _|thou, when life was|but a tomb, _|beam- * * edst|pure.|
!f! E!<(!E A!<)!^G | A3!>(! A!>)! |!>(! ^G3!>)! z | ^G2 ^F2 | ^F!<(!!courtesy!=G-!<)! (3GFE | %36
w: Thus I looked to|heav'n a-|gain,|yearn- ing,|yearn- * * * ing,|
!<(! (3:2:2D2 =B!<)! BA |!ff! =BA ^G2 | A3!mf! E | ^CE E^F | E3 ^F | ^F2 E2 |!pp! E2 ^FE | D4 | %44
w: yearn- ing up with|ea- * ger|eyes, as|sun- flow'rs af- ter|drear- y|rain _|drink _ the|skies,|
 ^C2 DC | ^C2 =B,2 | C!<(!E FG!<)! |!mf! FG AF | G4 | !tenuto!F!tenuto!F !tenuto!FF | E2 D2 | %51
w: drink _ the|skies. _|Oh glow on and|bright- * * er|glow,|let me ev- er|gaze on|
 C2 =B,2 | C2 =B,2 | D2 ^C2 |!p! D!<(!D D!<)!E | DE!>(! F!>)!D | B,4 |!pp! CD EG | G2 F2 | DE FA | %60
w: thee, _|gaze on|thee, _|lest I lose warm|hope _ _ and|so|cease _ to _|be, _|lest I lose warm|
 A2 !>!A>G | F3 F |!pp! FB, !tenuto!C!tenuto!D | C4 |] %64
w: hope and _|so and|so _ cease to|be.|
V:3
!mf! A>B!<(! A!<)!G | A3 f |!>(! e4!>)! |!mf! cc c>=B | c2 =B2 | A2 ^G2 |!p! A2 ^G2 | ^G2 =G2 | %8
w: Like the ro- sy|north- ern|glow|flush- ing on a|mon- *|* less,|moon- les|night, _|
 F>!<(!G!<)! FE | F3!>(! d | c4!>)! |!pp! AB!<(! c2!<)! | B4 |!>(! c2 z2!>)! ||!p! A>B!<(! AG!<)! | %15
w: where the world is|le- vel|snow,|so _ thy|light.|_|In my time of|
"^espress." A3!>(! f!>)! | e4 | !tenuto!cc c>=B |"^dolce" c2!<(! =B2!<)! | A2!>(! ^G2!>)! | %20
w: out- er|gloom|thou didst come, a|ten- *|* der,|
!<(! A2 ^G2!<)! |!>(! ^G2!>)! =G2 | !tenuto!F>G FE | F3 d | c4 |!pp! AB c2 | B2 F2 | Bc d2 | e3 z | %29
w: ten- der|lure, _|thou, when life was|but a|tomb,|beam- * edst|pure, _|beam- * edst|pure,|
 dc BA | !fermata!A4 ||!f! ^c!<(!c e!<)!d | ^c3!>(! ^d!>)! |!>(! e3!>)! z | =B^A B^c | d>^A A2 | %36
w: beam- * * edst|pure.|Thus I looked to|heav'n a-|gain,|yearn- ing up with|ea- ger eyes,|
!<(! (3:2:2=B2 d!<)! d^c |!ff! d^c =B2 | A3!mf! E | e^c A^G | A3 A | A2 ^G2 |!pp! A2 d^c | =B4 | %44
w: yearn- ing up with|ea- * ger|eyes, as|sun- flow'rs af- ter|drear- y|rain _|drink _ the|skies,|
 A2 =BA | ^G4 | A!<(!B AG!<)! |!mf! A3 f | e4 | !tenuto!c!tenuto!c !tenuto!c=B | c2 =B2 | A2 ^G2 | %52
w: drink _ the|skies.|Oh glow on and|bright- er|glow,|let me ev- er|gaze on|thee, _|
 =A2 ^G2 | ^G2 =G2 |!p! F!<(!G F!<)!E | F3!>)!!>(! d | c4 |!pp! AB c2 | B4 | Bc d2 | %60
w: gaze on|thee, _|lest I lose warm|hope and|so|cease _ to|be,|cease _ to|
 e2 !tenuto!A2- | Ae dB |!pp! B2 !tenuto!A!tenuto!B | A4 |] %64
w: be, cease|_ _ _ and|so cease to|be.|
V:4
!mf! F,>F,!<(! F,!<)!E, | D,E, F,A, |!>(! B,4!>)!!mf! | A,F, F,>D, | E,4- | E,4- | E,2!p! A,,2 | %7
w: Like the ro- sy|north- * ern _|glow|flush- ing on a|moon-||* les|
 A,,4 | D,>!<(!D,!<)! D,C, | B,,C, D,!>(!F, | G,4!>)! |!pp! F,2!<(! E,2!<)! | _E,2!>(! D,2!>)! | %13
w: night,|where the world is|le- * * vel|snow,|so thy|light. _|
 F,2 z2 ||!p! F,>F,!<(! F,E,!<)! |"^espress." D,E, F,A, |!>(! B,4!>)! | !tenuto!A,F, F,>D, | E,4- | %19
w: _|In my time of|out- * * er|gloom|thou didst come, a|ten-|
 E,4- | E,2 A,,2 | A,,4 | !tenuto!D,>D, D,C, | B,,C, D,F, | G,4 |!pp! F,2 E,2 | _E,2 D,2 | %27
w: |* der|lure,|thou, when life was|but _ _ a|tomb,|beam- edst|pure, _|
 G,2 F,2 | A,3 z | B,2 C,2 | !fermata!F,,4 ||!f! A,!<(!A, A,!<)!A, | A,3!>(! A,!>)! | %33
w: beam- edst|pure,|beam- edst|pure.|Thus I looked to|heav'n a-|
!>(! E,3!>)! z | E,3 E, | E,3 E, |!<(! E,4-!<)! |!ff! E,2 E,2 | A,3!mf! E, | E,E, E,D, | ^C,3 ^D, | %41
w: gain,|yearn- ing|up with|ea-|* ger|eyes, as|sun- flow'rs af- ter|drear- y|
 E,4- |!pp! E,4 | E,2 F,E, | E,4- | E,3 D, | C,2!<(! F,E,!<)! |!mf! D,E, F,A, | B,4 | %49
w: rain|_|drink the skies.|Oh|_ glow|on and bright-|* * * er|glow,|
 !tenuto!A,!tenuto!F, !tenuto!F,D, | E,4- | E,4- | E,2 A,,2 | A,,4 |!p! D,!<(!D, D,!<)!C, | %55
w: let me ev- er|gaze|_|* on|thee,|lest I lose warm|
 B,,C,!>(! D,!>)!F, | G,4 |!pp! F,2 E,2 | _E,2 D,2 | G,2 F,2 | A,2 z2 | D,3 D, | %62
w: hope _ _ and|so|cease to|be, _|cease to|be,|cease to|
!pp! C,2 !tenuto!C,!tenuto!C, | [F,,C,]4 |] %64
w: be, cease to|be.|

